svg/white/bos.svg

<svg height="32" viewBox="0 0 32 32" width="32" xmlns="http://www.w3.org/2000/svg"><path d="m16 32c-8.836556 0-16-7.163444-16-16s7.163444-16 16-16 16 7.163444 16 16-7.163444 16-16 16zm-1.5681818-13.0491803h2.6590909c3.9393939 0 5.9090909-1.0819672 5.9090909-3.2459017v-5.4590164c0-2.16393439-1.969697-3.2459016-5.9090909-3.2459016h-7.0909091v5.0163934h2.6590909v-3.09836061h4.7272727c1.969697 0 2.9545455.49180328 2.9545455 1.47540981v5.1639344c0 .9836066-.9848485 1.4754099-2.9545455 1.4754099h-2.9545454zm5.9090909 1.1803278v1.4754099c0 .9836065-.9848485 1.4754098-2.9545455 1.4754098h-2.9545454-1.7727273v-7.6721311h4.7272727c.3217303 0 .6171848.0131213.8863637.0393638v-1.921219c-.3719859-.0241184-.7659253-.0361776-1.1818182-.0361776h-7.0909091v11.5081967h7.0909091c3.9393939 0 5.9090909-1.0819672 5.9090909-3.2459016v-1.6229509z" fill="#fff" fill-rule="evenodd"/></svg>

<svg xmlns="http://www.w3.org/2000/svg" width="32" height="32" viewBox="0 0 32 32">
  <path fill="#FFF" fill-rule="evenodd" d="M16,32 C7.163444,32 0,24.836556 0,16 C0,7.163444 7.163444,0 16,0 C24.836556,0 32,7.163444 32,16 C32,24.836556 24.836556,32 16,32 Z M14.4318182,18.9508197 L17.0909091,18.9508197 C21.030303,18.9508197 23,17.8688525 23,15.704918 L23,10.2459016 C23,8.08196721 21.030303,7 17.0909091,7 L10,7 L10,12.0163934 L12.6590909,12.0163934 L12.6590909,8.91803279 L17.3863636,8.91803279 C19.3560606,8.91803279 20.3409091,9.40983607 20.3409091,10.3934426 L20.3409091,15.557377 C20.3409091,16.5409836 19.3560606,17.0327869 17.3863636,17.0327869 L14.4318182,17.0327869 L14.4318182,18.9508197 Z M20.3409091,20.1311475 L20.3409091,21.6065574 C20.3409091,22.5901639 19.3560606,23.0819672 17.3863636,23.0819672 L14.4318182,23.0819672 L12.6590909,23.0819672 L12.6590909,15.4098361 L17.3863636,15.4098361 C17.7080939,15.4098361 18.0035484,15.4229574 18.2727273,15.4491999 L18.2727273,13.5279809 C17.9007414,13.5038625 17.506802,13.4918033 17.0909091,13.4918033 L10,13.4918033 L10,25 L17.0909091,25 C21.030303,25 23,23.9180328 23,21.7540984 L23,20.1311475 L20.3409091,20.1311475 Z"/>
</svg>
